plugins/easy-accordion-free/admin/img/ea-icon.svg

<?xml version="1.0"?>
<svg xmlns="http://www.w3.org/2000/svg" xmlns:xlink="http://www.w3.org/1999/xlink" version="1.1" width="18px" height="18px" viewBox="0 0 16 16" class=""><g><path fill="#FC936F" d="M0 4v8h16v-8h-16zM15 11h-14v-4h14v4z" data-original="#444444" class="" data-old_color="#F00101"/><path fill="#FC936F" d="M0 0h16v3h-16v-3z" data-original="#444444" class="" data-old_color="#F00101"/><path fill="#FC936F" d="M0 13h16v3h-16v-3z" data-original="#444444" class="" data-old_color="#F00101"/></g></svg>

<svg xmlns="http://www.w3.org/2000/svg" width="18" height="18" viewBox="0 0 16 16" fill="#FD632B" xmlns:v="https://vecta.io/nano"><path d="M0 4v8h16V4H0zm15 7H1V7h14v4zM0 0h16v3H0V0zm0 13h16v3H0v-3z"/></svg>
